X:1
T:Nuntius celso - Ortiz
T:#
%%score [ 1 { 2 | 3 } 4 5 ]
L:1/8
Q:1/4=200
M:none
K:F
V:1 treble nm="Soprano" snm="S"
V:2 treble nm="Alto" snm="A"
V:3 treble 
V:4 treble-8 nm="Tenor" snm="T"
V:5 bass nm="Bass" snm="B"
V:1
"^Nuntius celso""^Diego Ortiz\n(1510-1570)""^Hymn for the Birth of John the Baptist" z16 | z16 | %2
w: ||
 z16 | z8 d8 | c8 (d8 | f8) f8 | (d8 e8) | d12 d4 | (d8 c8) | d4 (d6 c2 B4- | B4 A4) B8 | z16 | %12
w: |Nun-|ti- us|* cel-|so *|ve- ni-|ens *|O- lym\- * *|* * po,||
 c12 B4 | c8 d8 | (c12 B4 | c8) z4 c4- | c4 B4 G4 A4- | A4 (G2 F2 G8) | F4 F4 G4 B4- | %19
w: Te Pa-|tri ma-|gnum *|* fo\-|* re na- sci\-|* tu\- * *|rum, no- men et|
 B4 A4 (B6 c2) | d4 c4 B8 | A8 (G6 F2 | G2 A2 B2 c2 d4 c4- | c4 B4) (c4 B2 A2 | B4) c8 (B4- | %25
w: * vi- tae *|se- ri- em|ge- ren\- *||* * dae, * *|* se- ri\-|
 B4 A2 G2) F4 A4 | (G6 A2 B2 c2 d2 B2) | c8 B8- | B8 A8 | %29
w: * * * em ge-|ren\- * * * * *|dae, or\-|* di-|
[Q:1/4=198] (B6[Q:1/4=195] A2[Q:1/4=193] G4)[Q:1/4=190] (A4- | %30
w: ne * * pro\-|
[Q:1/4=189] A2[Q:1/4=187] G2[Q:1/4=184] G8[Q:1/4=181] ^F4) |[Q:1/4=180] G16 || z16 | z16 | z16 | %35
w: |mit.||||
 z16 | z16 | d16 | c8 (d8 | f8 f8 | (d8 e8) | z16 | d12 d4 | c8 d8 | f8 f8 | d8 d8 | c6 d2) e8 | %47
w: ||Glo-|ri- a|* Pa-|tri, *||ge- ni-|tae- que|Pro- li,|et ti-|bi * com-|
 d16- | d8 z4 g4- | g4 f4 f8- | f8 (d8- | d4 e4) c8- | c8 d8 | z16 | z8 (c8 | d8) f8- | f8 e8 | %57
w: par|* u\-|* tri- us\-|* que|* * sem\-|* per,||Spi\-|* ri\-|* tus|
 d8 c8 | z16 | z8 z4 g4- | g4 f4 g8- | g4 f4 e4 (d4 | e8) d8 | z16 | z16 | d16 | c8 d8- | %67
w: al- me,||De\-|* us u\-|* nus o- mni\-|* um|||tem-|po- re|
 d4 c4 B8- | B8 A8 | z8[Q:1/4=198] d8- |[Q:1/4=195] d4[Q:1/4=193] d4[Q:1/4=191] e8 | %71
w: * sae- cu\-|* li,|tem\-|* po- re|
[Q:1/4=188] f4[Q:1/4=186] f4[Q:1/4=184] f8- |[Q:1/4=181] f4[Q:1/4=180] e4[Q:1/4=177] d8- | %73
w: sae- cu- li.|* A- men.|
[Q:1/4=173] d16 |] %74
w: |
V:2
 D8 C8 | D8 F8 | D8 G8- | G4 F4 G4 (F2 G2 | A16) | A16 | z4 A8 A4 | (A12 G2 F2 | G8) A4 (A4- | %9
w: Nun- ti-|us cel-|so, nun\-|* ti- us cel\- *||so|ve- ni-|ens * *|* O- lym\-|
 A2 G2 F2 E2 D4 E4 | F8) D4 G4- | G4 F4 G8 | (E4 F4 G8- | G16) | A8 z4 G4- | G4 E4 (E8- | %16
w: |* po, Te|* Pa- tri|ma\- * *||gnum fo\-|* re na\-|
 E4 D2 C2) D4 (F4- | F2 E2) D4 z4 C4 | D16 | F8 (D6 E2 | F2 G2 A2 F2 G8) | C16 | z8 z4 G4- | %23
w: * * * sci- tu\-|* * rum, no-|men|et vi\- *||tae|se\-|
 G4 G4 (F6 E2 | F2 G2) A8 (D4- | D2 C2 C4) D4 F4- | F4 E4 F8- | F8 (D8 | B,8 C8) | B,4 (D6 E2 F4) | %30
w: * ri- em *|* * ge- ren\-|* * * dae, or\-|* di- ne|* pro\-||mit, or\- * *|
 D4 C4 D8 | D16 || G12 F4 | G4 (B8 A4 | G4 F2 E2 F2 G2 A4 | B4) c4 c8- | c4 c4 B4 (B4- | %37
w: di- ne pro-|mit.|Glo- ri-|a Pa\- *||* tri, glo\-|* ri- a Pa\-|
 B2 A2 G2 F2 G6 F2 | E8) D8 | z4 B8 A4 | G12 (c4- | c4 B4) c8 | F16 | z4 G4 (B8- | %44
w: |* tri,|ge- ni-|tae- que|* * Pro-|li,|et ti\-|
 B4 A2 G2) F4 (c4- | c4 B2 A2 B8 | c12 G4 | z4 G8 G4 | F4 (F8 E2 D2 | E4) F4 D8 | z4 B8 B4 | %51
w: * * * bi com\-||* par|u- tri-|us- que * *|* sem- per,|u- tri-|
 A4 c6 B2 G4- | G4 A4) B8- | B8 G8- | G8 z4 c4- | c4 B4 c8 | (B4 A4 G6 A2 | B4 A2 G2 A8 | G8) E8 | %59
w: us- que * *|* * sem\-|* per,|* Spi\-|* ri- tus|al\- * * *||* me,|
 z4 d8 c4 | d6 c2 B2 A2 G2 F2 | E4 F4 G4 A4 | B4 c8 B4 | c8 c8- | c8 B8- | B8 A8- | A8 A8 | %67
w: De- us|u\- * * * * *|* nus o\- *|* * mni-|um tem\-|* po\-|* re|* sae\-|
 (B4 A4 G4 F4- | F4 E4) F8 | D16- | D8 z8 | D12 D4 | G,8 D8 | =B,16 |] %74
w: |* * cu-|li,||sae- cu-|li. A-|men.|
V:3
 x16 | x16 | x16 | x16 | x16 | x16 | x16 | x16 | x16 | x16 | x16 | x16 | x16 | x16 | x16 | x16 | %16
w: ||||||||||||||||
 x16 | x16 | x16 | x16 | x16 | x16 | x16 | x16 | x16 | x16 | x16 | x16 | x16 | x16 | x16 | x16 || %32
w: ||||||||||||||||
 z16 | z16 | z16 | G16 | F8 (G8 | B8) B8 | (G8 A8) | z16 | G12 G4 | F8 G8 | B8 B8 | G8 G8 | %44
w: |||Glo-|ri- a|* Pa-|tri, *||ge- ni-|tae- que|Pro- li,|et ti-|
 (F6 G2) A8 | G16- | G8 z4 c4- | c4 B4 B8- | B8 (G8- | G4 A4) F8- | F8 G8 | z16 | z8 F8 | G8 B8- | %54
w: bi * com-|par|* u\-|* tri- us\-|* que|* * sem\-|* per||Spi\-|* ri\-|
 B8 A8 | G8 F8 | z16 | z8 z4 c4- | c4 B4 c8- | c4 B4 A4 G4 | A8 G8 | z16 | z16 | G16 | F8 G8- | %65
w: * tus|al- me||De\-|* us u\-|* nus o- mni\-|* um|||tem-|po- re|
 G4 F4 E8- | E8 D8 | z8 G8- | G4 G4 A8 | B4 B4 (B8- | B4 A4) G8 | F16 | (G12 ^F4) | G16 |] %74
w: * sae- cu\-|* li,|tem\-|* po- re|sae- cu- li.|* * A-|men.|A\- *|men.|
V:4
 z16 | z16 | z8 d8 | c8 d8 | e8 d8- | d8 z4 f4- | f4 f4 (e8 | f8) d8- | d8 (e4 f4- | %9
w: ||Nun-|ti- us|cel- so|* ve\-|* ni- ens|* O\-|* lym\- *|
 f2 e2 d2 c2 B8 | c8) B8 | z4 c8 B4 | c8 d8 | c4 e4 d8 | e4 f4 d8 | c4 c8 G4 | A4 (B8 A2 G2 | %17
w: |* po,|Te Pa-|tri ma-|gnum fo- re|na- sci- tu-|rum, fo- re|na- sci\- * *|
 A8 (G8 | A8) G8 | z16 | z4 c4 d8 | f12 e2 d2 | e4 (f8 e4 | d8) c4 d4- | d4 c2 B2 A4) B4 | %25
w: * tu\-|* rum,||no- men|et * *|* vi\- *|* tae se\-|* * * * ri-|
 G8 (A6 B2) | (c8 d8) | c8 z4 f4- | f4 e4 (f6 e2 | d2 c2 B2 c2 d2 B2 c4) | (B4 G4 A8) | G16 || %32
w: em ge\- *|ren\- *|dae, or\-|* di- ne *||pro\- * *|mit.|
 z16 | d16 | (d12 c4 | d4) e4 c8- | c8 d8- | d16 | z4 g8 f4 | (f6 e2 d4) c4- | c4 =B4 c8 | z16 | %42
w: |Glo-|ri\- *|* a Pa\-|* tri,||ge- ni-|tae\- * * que|* Pro- li,||
 d16 | _e8 d8 | d12 c4 | z4 d8 d4 | _e8 c8 | d16 | d8 z4 c4- | c4 c4 B8- | B8 B8 | (d4 c2 d2 _e8- | %52
w: et|ti- bi|com- par|u- tri-|us- que|sem-|per, u\-|* tri- us\-|* que|sem\- * * *|
 e8) d8- | d16 | d8 z8 | z16 | z8 c8 | d8 (f6 e2 | d8) (c6 d2 | e4 d2 e2 f4) g4 | z4 d8 B4 | %61
w: * per,||||Spi-|ri- tus *|* al\- *|* * * * me,|De- us|
 (c4 d4 e4 f4) | g8 (f8- | f4 e2 d2 e4 d4) | c8 d8- | d8 z8 | z8 A8 | G4 A4 B8- | B8 c8 | B12 c4 | %70
w: u\- * * *|nus o\-||mni- um||tem-|po- re sae\-|* cu-|li, A-|
 d4 (d8 c4- | c4 B2 A2 B4) A4 | c8 A8 | G16 |] %74
w: men, sae\- *|* * * * cu-|li. A-|men.|
V:5
 z16 | G,8 F,8 | G,16 | (A,8 G,4 B,4 | A,8) D,8 | z4 D8 D4 | D8 (^C8 | D8) B,8- | B,8 A,8 | %9
w: |Nun- ti-|us|cel\- * *|* so|ve- ni-|ens O\-|* lym\-|* po,|
 z8 (G,8 | F,8) (G,8 | A,8) G,8 | A,8 G,8 | z4 C8 B,4 | A,4 F,4 G,8 | C,16 | z4 G,8 F,4 | %17
w: Te|* Pa\-|* tri|ma- gnum|fo- re|na- sci- tu-|rum,|fo- re|
 D,4 F,4 E,8 | D,8 z8 | F,8 G,4 (B,4- | B,4 A,4) G,8 | F,8 z4 (C4- | C4 B,2 A,2 B,4) C4 | %23
w: na- sci- tu-|rum,|no- men et|* * vi-|tae se\-|* * * * ri-|
 G,8 A,4 (B,4- | B,4 A,2 G,2 F,4 G,4 | _E,8) D,8 | z8 B,8- | B,4 A,4 B,8 | (G,8 F,8) | %29
w: em ge- ren\-||* dae,|or\-|* di- ne|pro\- *|
 G,4 G,8 F,4 | G,4 (_E,4 D,8) | G,16 || z16 | G,12 F,4 | G,4 (B,8 A,4 | G,4 C6 B,2 A,2 G,2 | %36
w: mit, or- di-|ne pro\- *|mit.||Glo- ri-|a Pa\- *||
 A,8) G,8- | G,16 | z8 z4 D4- | D4 B,4 B,4 F,4 | G,8 C,4 (C4 | D8 C8) | B,16 | z8 G,8 | D,12 F,4 | %45
w: * tri,||ge\-|* ni- tae- que|Pro- li, Pro\-||li,|et|ti- bi|
 G,16 | C,8 z8 | G,12 G,4 | B,4 B,4 C8- | C4 F,4 z8 | z16 | z4 C8 C4 | C8 B,8 | G,16- | G,8 F,8 | %55
w: com-|par|u- tri-|us- que sem\-|* per,||u- tri-|us- que|sem\-|* per|
 z16 | z16 | z16 | G,8 (A,6 B,2 | C4) G,4 (D4 _E4 | D8 G,8 | z8 z4 D4- | D4 C4 D8 | (C12 B,4) | %64
w: |||Spi- ri\- *|* tus al\- *|* me,|De\-|* us u-|nus *|
 A,8 G,8- | G,8 A,8- | A,8) D,8 | z8 G,8- | G,8 F,8 | G,8 G,8- | G,4 F,4 E,8 | (D,16 | C,8 D,8) | %73
w: o- mni\-||* um|tem\-|* po-|re sae\-|* cu- li.|A\-||
 G,16 |] %74
w: men.|

